X: 11
T:Cold Frosty Morning
M:4/4
L:1/8
C:
S:AABB form
R:Key of G
K:G
|:E2|A2cBA2A2|ABcde2D2|G2BAG2G2|GABcd2E2|A2cBA2A2|ABcde2|cBAcBAGB|1A2E2A
|2A2E2A3|!|:e2a2a2a2|abage4|e2f2g2f2|edcde4|!A2A2c2c2|d2d2e2e2|cBAcBAGB|
A2E2A4:|
